X: 581
T: Dinlese Şedd-i Arabân`ı
C: Ahmet Avni Konuk
O: Turkey
F: http://compmusic.upf.edu/node/140
N: sedaraban--kupe--yuruksemai_ii--dinlese--ahmet_avni_konuk
N: makam= sedaraban
N: form= kupe
N: usul= yuruksemai_ii = 6/8
M: 6/8
L: 1/16
K: C _7/8B _7/8e ^f ^c
Q: 1/4=120
%%MIDI tuningsystem comma53
d4 d2f2 e2d2  | feed c2d2 c2z2  | d4 e2f2 e2f2  | \
w:  Din le se   |  Şedd_ *  *  *  *  *  i   |  A ra bâ  | 
g6fa g2z2  | 
w:  nı   | 
g4 g2f2 g2a2  | _b2a2 g2fe d4  | a2g2 f2f2 e2ed  | \
w:  A rab_ an  |  dan   |  bir   | 
d8-d2z2  | 
w:  kez    | 
c4 e2d4z2  | e2d2 c2_B2 A4  | _B4 BAAG FGAB  | \
w:  Terk_ e der   |  mâ  |  me le *  kin   | 
G2A8z2  | 
w:  gay  | 
G4 _B2A4AG  | F4 G2FE D4  | A2G2 F2F2 E2ED  | \
w:  rı  Hi câ  |  za   |  git  | 
D8-D2z2  | |


